content/codes/images/semaphore/Semaphore_Zulu.svg

<svg height="500" width="600" xmlns="http://www.w3.org/2000/svg"><path d="m275 200a25 25 0 1 1 -50 0 25 25 0 1 1 50 0z" fill-rule="evenodd" transform="translate(50 10)"/><rect fill-rule="evenodd" height="160" rx="20" ry="21.333334" width="70" x="265" y="240"/><g><g fill-rule="evenodd"><rect height="20" rx="10" width="70" x="340" y="240"/><path d="m400 245h200v10h-200z" stroke="#000"/><path d="m510 345v-90h90v90z" fill="#ff0"/><path d="m510 255h90v90z" fill="#f00"/></g><path d="m510 345v-90h90v90z" fill="none" stroke="#000" stroke-linejoin="round"/></g><g><g fill-rule="evenodd"><rect height="20.000006" rx="10.000003" transform="matrix(.707107 .707107 -.707107 .707107 0 0)" width="70.000023" x="366.18088" y="-32.627491"/><path d="m426.18091-27.627489h200.00006v10.000003h-200.00006z" stroke="#000" transform="matrix(.707107 .707107 -.707107 .707107 0 0)"/><path d="m327.96206 430.31228 63.63963-63.63963 63.63963 63.63963-63.63963 63.63963z" fill="#ff0"/><path d="m391.60169 366.67265 63.63963 63.63963-63.63963 63.63963z" fill="#f00"/></g><path d="m327.96206 430.31228 63.63963-63.63963 63.63963 63.63963-63.63963 63.63963z" fill="none" stroke="#000" stroke-linejoin="round"/></g></svg>

<?xml version="1.0" encoding="UTF-8" standalone="no"?>
<!-- Created with Inkscape (http://www.inkscape.org/) -->
<svg
   xmlns:dc="http://purl.org/dc/elements/1.1/"
   xmlns:cc="http://web.resource.org/cc/"
   xmlns:rdf="http://www.w3.org/1999/02/22-rdf-syntax-ns#"
   xmlns:svg="http://www.w3.org/2000/svg"
   xmlns="http://www.w3.org/2000/svg"
   xmlns:sodipodi="http://inkscape.sourceforge.net/DTD/sodipodi-0.dtd"
   xmlns:inkscape="http://www.inkscape.org/namespaces/inkscape"
   width="600"
   height="500"
   id="svg2"
   sodipodi:version="0.32"
   inkscape:version="0.43"
   version="1.0"
   sodipodi:docbase="C:\Documents and Settings\David Nelson\Archives\Svg"
   sodipodi:docname="Semaphore Zulu.svg">
  <defs
     id="defs4" />
  <sodipodi:namedview
     id="base"
     pagecolor="#ffffff"
     bordercolor="#666666"
     borderopacity="1.0"
     inkscape:pageopacity="0.0"
     inkscape:pageshadow="2"
     inkscape:zoom="0.5"
     inkscape:cx="277.85308"
     inkscape:cy="120.82915"
     inkscape:document-units="px"
     inkscape:current-layer="layer4"
     showgrid="true"
     inkscape:grid-points="true"
     inkscape:window-width="756"
     inkscape:window-height="540"
     inkscape:window-x="365"
     inkscape:window-y="436" />
  <metadata
     id="metadata7">
    <rdf:RDF>
      <cc:Work
         rdf:about="">
        <dc:format>image/svg+xml</dc:format>
        <dc:type
           rdf:resource="http://purl.org/dc/dcmitype/StillImage" />
      </cc:Work>
    </rdf:RDF>
  </metadata>
  <g
     inkscape:label="Head and Torso"
     inkscape:groupmode="layer"
     id="layer1">
    <path
       sodipodi:type="arc"
       style="opacity:1;fill:#000000;fill-opacity:1;fill-rule:evenodd;stroke:none;stroke-width:2.5;stroke-miterlimit:4;stroke-dasharray:none;stroke-opacity:1"
       id="path7712"
       sodipodi:cx="250"
       sodipodi:cy="200"
       sodipodi:rx="25"
       sodipodi:ry="25"
       d="M 275 200 A 25 25 0 1 1  225,200 A 25 25 0 1 1  275 200 z"
       transform="translate(50,10)" />
    <rect
       style="opacity:1;fill:#000000;fill-opacity:1;fill-rule:evenodd;stroke:none;stroke-width:2.5;stroke-miterlimit:4;stroke-dasharray:none;stroke-opacity:1"
       id="rect7718"
       width="70"
       height="160"
       x="265"
       y="240"
       rx="20"
       ry="21.333334" />
  </g>
  <g
     inkscape:groupmode="layer"
     id="layer4"
     inkscape:label="Left Hand"
     style="display:inline">
    <g
       id="g11871">
      <rect
         ry="10"
         rx="10"
         y="240"
         x="340"
         height="20"
         width="70"
         id="rect7724"
         style="fill:#000000;fill-opacity:1;fill-rule:evenodd;stroke:none;stroke-width:2.5;stroke-miterlimit:4;stroke-dasharray:none;stroke-opacity:1" />
      <rect
         y="245"
         x="400"
         height="10"
         width="200"
         id="rect7726"
         style="fill:#000000;fill-opacity:1;fill-rule:evenodd;stroke:#000000;stroke-width:1;stroke-miterlimit:4;stroke-dasharray:none;stroke-opacity:1" />
      <path
         style="fill:#ffff00;fill-opacity:1;fill-rule:evenodd;stroke:none;stroke-width:0.5;stroke-miterlimit:4;stroke-opacity:1"
         d="M 510,345 L 510,255 L 600,255 L 600,345 L 510,345 z "
         id="path7785" />
      <path
         id="path7787"
         d="M 510,255 L 600,255 L 600,345 L 510,255 z "
         style="fill:#ff0000;fill-opacity:1;fill-rule:evenodd;stroke:none;stroke-width:0.5;stroke-miterlimit:4;stroke-opacity:1" />
      <path
         id="path11838"
         d="M 510,345 L 510,255 L 600,255 L 600,345 L 510,345 z "
         style="fill:#ffff00;fill-opacity:0;fill-rule:evenodd;stroke:#000000;stroke-width:1;stroke-linejoin:round;stroke-miterlimit:4;stroke-dasharray:none;stroke-opacity:1" />
    </g>
  </g>
  <g
     inkscape:groupmode="layer"
     id="layer5"
     inkscape:label="Right Hand"
     style="display:inline">
    <g
       id="g12051">
      <rect
         transform="matrix(0.707107,0.707107,-0.707107,0.707107,0,0)"
         style="fill:#000000;fill-opacity:1;fill-rule:evenodd;stroke:none;stroke-width:2.5;stroke-miterlimit:4;stroke-dasharray:none;stroke-opacity:1"
         id="rect11686"
         width="70.000023"
         height="20.000006"
         x="366.18088"
         y="-32.627491"
         rx="10.000003"
         ry="10.000003" />
      <rect
         transform="matrix(0.707107,0.707107,-0.707107,0.707107,0,0)"
         style="fill:#000000;fill-opacity:1;fill-rule:evenodd;stroke:#000000;stroke-width:0.9999997;stroke-miterlimit:4;stroke-dasharray:none;stroke-opacity:1"
         id="rect11688"
         width="200.00006"
         height="10.000003"
         x="426.18091"
         y="-27.627489" />
      <path
         id="path11692"
         d="M 327.96206,430.31228 L 391.60169,366.67265 L 455.24132,430.31228 L 391.60169,493.95191 L 327.96206,430.31228 z "
         style="fill:#ffff00;fill-opacity:1;fill-rule:evenodd;stroke:none;stroke-width:0.5;stroke-miterlimit:4;stroke-opacity:1" />
      <path
         style="fill:#ff0000;fill-opacity:1;fill-rule:evenodd;stroke:none;stroke-width:0.5;stroke-miterlimit:4;stroke-opacity:1"
         d="M 391.60169,366.67265 L 455.24132,430.31228 L 391.60169,493.95191 L 391.60169,366.67265 z "
         id="path11694" />
      <path
         style="fill:#ffff00;fill-opacity:0;fill-rule:evenodd;stroke:#000000;stroke-width:1;stroke-linejoin:round;stroke-miterlimit:4;stroke-dasharray:none;stroke-opacity:1"
         d="M 327.96206,430.31228 L 391.60169,366.67265 L 455.24132,430.31228 L 391.60169,493.95191 L 327.96206,430.31228 z "
         id="path12007" />
    </g>
  </g>
</svg>
